packages/icons/src/chaos-experiment-weight.svg

<svg viewBox="0 0 19 19" fill="none" xmlns="http://www.w3.org/2000/svg">
<path fill-rule="evenodd" clip-rule="evenodd" d="M3.5625 4.75C3.5625 4.09416 4.09416 3.5625 4.75 3.5625H6.53125C7.18709 3.5625 7.71875 4.09416 7.71875 4.75V8.90625H11.2812V4.75C11.2812 4.09416 11.8129 3.5625 12.4688 3.5625H14.25C14.9058 3.5625 15.4375 4.09416 15.4375 4.75V5.34375H16.625C16.9399 5.34375 17.242 5.46886 17.4647 5.69156C17.6874 5.91426 17.8125 6.21631 17.8125 6.53125V8.90625H18.4062C18.7342 8.90625 19 9.17208 19 9.5C19 9.82792 18.7342 10.0938 18.4062 10.0938H17.8125V12.4688C17.8125 12.7837 17.6874 13.0857 17.4647 13.3084C17.242 13.5311 16.9399 13.6562 16.625 13.6562H15.4375V14.25C15.4375 14.9058 14.9058 15.4375 14.25 15.4375H12.4688C11.8129 15.4375 11.2812 14.9058 11.2812 14.25V10.0938H7.71875V14.25C7.71875 14.9058 7.18709 15.4375 6.53125 15.4375H4.75C4.09416 15.4375 3.5625 14.9058 3.5625 14.25V13.6562H2.375C2.06006 13.6562 1.75801 13.5311 1.53531 13.3084C1.31261 13.0857 1.1875 12.7837 1.1875 12.4688V10.0938H0.59375C0.265831 10.0938 0 9.82792 0 9.5C0 9.17208 0.265831 8.90625 0.59375 8.90625H1.1875V6.53125C1.1875 6.21631 1.31261 5.91426 1.53531 5.69156C1.75801 5.46886 2.06006 5.34375 2.375 5.34375H3.5625V4.75ZM3.5625 6.53125H2.375V12.4688H3.5625V6.53125ZM4.75 4.75H6.53125V14.25H4.75V4.75ZM12.4688 14.25H14.25V4.75H12.4688V14.25ZM15.4375 6.53125V12.4688H16.625V6.53125H15.4375Z" fill="#383946"/>
</svg>

<svg viewBox="0 0 19 19" fill="currentColor" xmlns="http://www.w3.org/2000/svg"><path fill-rule="evenodd" clip-rule="evenodd" d="M3.563 4.75c0-.656.531-1.188 1.187-1.188h1.781c.656 0 1.188.532 1.188 1.188v4.156h3.562V4.75c0-.656.532-1.188 1.188-1.188h1.781c.656 0 1.188.532 1.188 1.188v.594h1.187a1.188 1.188 0 0 1 1.188 1.187v2.375h.593a.594.594 0 1 1 0 1.188h-.593v2.375a1.187 1.187 0 0 1-1.188 1.187h-1.188v.594c0 .656-.531 1.188-1.187 1.188h-1.781a1.188 1.188 0 0 1-1.188-1.188v-4.156H7.72v4.156c0 .656-.532 1.188-1.188 1.188H4.75a1.188 1.188 0 0 1-1.188-1.188v-.594H2.375a1.187 1.187 0 0 1-1.188-1.187v-2.375H.595a.594.594 0 0 1 0-1.188h.594V6.531a1.188 1.188 0 0 1 1.187-1.187h1.188V4.75Zm0 1.781H2.375v5.938h1.188V6.53ZM4.75 4.75h1.781v9.5H4.75v-9.5Zm7.719 9.5h1.781v-9.5h-1.781v9.5Zm2.969-7.719v5.938h1.187V6.53h-1.188Z" fill="#383946"/></svg>
